X: 1
T: Mominette
T: Schottische à Bethanie
C: Maxou Heintzen
R: Schottische
L: 1/8
M: 4/4
K: Em
Z: ABC transcription by Verge Roller
r: 32
"Em" E2 GB E2 GB | "Am" c2 BA "Em" B4 | "C" cded "Am" c2 BA | "Am" G2 A2 "Em" B4 |
"Em" E2 GB E2 GB | "Am" c2 BA "Em" B4 | "C" cded "Am" c2 BA | "D" G2 F2 "Em" E4 :|
"C" e2 fg "D" f2 e2 | "G" dedc "Em" B4 | "C" cded "Am" c2 BA | "Am" G2 A2 "Em" B4 |
"C" e2 fg "D" f2 e2 | "G" dedc "Em" B4  | "C" cded "Am" c2 BA | "D" G2 F2 "Em" E4 :|
